X: 1925
T: Thomas Conlon's Schottische
B: australian traditional tunes wiki
M:4/4
L:1/8
R: Schottische
Q: 1/4=100
K:D
V:1 
"D"f2"A"e2"D"d2"G"B2|"D"A>d F>G A>FD2|"A7"E2E>FG2F>E|"D"D>E F>G"A"A4|
"D"f2"A"e2"D"d2"G"B2|"D"A>d (3FG^G A>FD2|"A7"E2E>F (3GAG E>C|"D"D2D2D2(3DEF|
"G"G2G2 B>G E>G|"D"F2F2A>F D>F|"A7"E2E>F G>F E2|"D"D>E F>G"A7"A2A2|
"G"G2G2B>G E>G|"D"F2F2A>F D>F|"A7"E2E2"A"G>E (3CDE|"D"F2D2D4||
% abcbook-tune_id 6342d5beb2f86dbe37bd0a81


% abcbook-boost 0
% abcbook-tablature 
% abcbook-transpose 
% abcbook-lastupdated 1665324488244
% abcbook-soundfonts 
% abcbook-repeats 1
% NFF Book 2006

